storage/app/icons/phosphoricons/thin/folder-simple-minus-thin.svg

<svg xmlns="http://www.w3.org/2000/svg" fill="currentColor" viewBox="0 0 256 256"><path d="M216 76h-86.67l-28.8-21.6a12.05 12.05 0 0 0-7.2-2.4H40a12 12 0 0 0-12 12v136a12 12 0 0 0 12 12h176.89A11.12 11.12 0 0 0 228 200.89V88a12 12 0 0 0-12-12m4 124.89a3.12 3.12 0 0 1-3.11 3.11H40a4 4 0 0 1-4-4V64a4 4 0 0 1 4-4h53.33a4 4 0 0 1 2.4.8l29.87 22.4a4 4 0 0 0 2.4.8h88a4 4 0 0 1 4 4ZM156 144a4 4 0 0 1-4 4h-48a4 4 0 0 1 0-8h48a4 4 0 0 1 4 4"/></svg>

<svg xmlns="http://www.w3.org/2000/svg" viewBox="0 0 256 256" fill="currentColor"><path d="M216,76H129.33l-28.8-21.6a12.05,12.05,0,0,0-7.2-2.4H40A12,12,0,0,0,28,64V200a12,12,0,0,0,12,12H216.89A11.12,11.12,0,0,0,228,200.89V88A12,12,0,0,0,216,76Zm4,124.89a3.12,3.12,0,0,1-3.11,3.11H40a4,4,0,0,1-4-4V64a4,4,0,0,1,4-4H93.33a4,4,0,0,1,2.4.8L125.6,83.2a4,4,0,0,0,2.4.8h88a4,4,0,0,1,4,4ZM156,144a4,4,0,0,1-4,4H104a4,4,0,0,1,0-8h48A4,4,0,0,1,156,144Z"/></svg>
